; generated by PrusaSlicer 2.6.0+MacOS-x64 on 2023-10-29 at 10:05:09 UTC


;
;
; 

; external perimeters extrusion width = 0.45mm
; perimeters extrusion width = 0.45mm
; infill extrusion width = 0.45mm
; solid infill extrusion width = 0.45mm
; top infill extrusion width = 0.40mm
; first layer extrusion width = 0.42mm

M73 P0 R41
M73 C26
M73 Q0 S42
M73 D26
M201 X1000 Y1000 Z200 E5000 ; sets maximum accelerations, mm/sec^2
M203 X200 Y200 Z12 E120 ; sets maximum feedrates, mm / sec
M204 S1250 T1250 ; sets acceleration (S) and retract acceleration (R), mm/sec^2
M205 X8.00 Y8.00 Z0.40 E4.50 ; sets the jerk limits, mm/sec
M205 S0 T0 ; sets the minimum extruding and travel feed rate, mm/sec
;TYPE:Custom
M862.3 P "MK3S" ; printer model check
M862.1 P0.4 ; nozzle diameter check
M115 U3.13.0 ; tell printer latest fw version
G90 ; use absolute coordinates
M83 ; extruder relative mode
M104 S215 ; set extruder temp
M140 S60 ; set bed temp
M190 S60 ; wait for bed temp
M109 S215 ; wait for extruder temp
G28 W ; home all without mesh bed level
G80 ; mesh bed leveling

G1 Z0.2 F720
G1 Y-3 F1000 ; go outside print area
G92 E0
G1 X60 E9 F1000 ; intro line
G1 X100 E12.5 F1000 ; intro line

G92 E0
M221 S95

; Don't change E values below. Excessive value can damage the printer.
M907 E430 ; set extruder motor current
G21 ; set units to millimeters
G90 ; use absolute coordinates
M83 ; use relative distances for extrusion
M900 K0.05 ; Filament gcode LA 1.5
M900 K30 ; Filament gcode LA 1.0
M107
;LAYER_CHANGE
;Z:0.2
;HEIGHT:0.2
;BEFORE_LAYER_CHANGE
G92 E0.0
;0.2


G1 E-.8 F2100
G1 Z.4 F720
;AFTER_LAYER_CHANGE
;0.2
G1 X80.187 Y89.209 F10800
G1 Z.2 F720
G1 E.8 F2100
M204 S800
;TYPE:Skirt/Brim
;WIDTH:0.42
G1 F1200
G1 X81.501 Y88.451 E.04756
G1 X82.425 Y88.166 E.03032
G1 X83.591 Y88.036 E.03679
G1 X155.49 Y88.045 E2.25434
G1 X156.45 Y88.166 E.03034
G1 X157.374 Y88.451 E.03032
G1 X158.234 Y88.892 E.0303
G1 X159.005 Y89.475 E.03031
G1 X159.673 Y90.198 E.03086
G1 X160.421 Y91.498 E.04703
G1 X160.706 Y92.422 E.03032
G1 X160.826 Y93.381 E.0303
G1 X160.835 Y117.899 E.76874
G1 X160.778 Y118.657 E.02383
G1 X160.421 Y119.99 E.04327
G1 X159.663 Y121.303 E.04754
G1 X158.688 Y122.278 E.04323
G1 X157.374 Y123.037 E.04758
G1 X156.45 Y123.322 E.03032
G1 X155.283 Y123.451 E.03681
G1 X83.591 Y123.451 E2.24785
G1 X82.833 Y123.394 E.02383
M73 Q0 S41
G1 X81.89 Y123.179 E.03033
G1 X80.641 Y122.596 E.04322
G1 X79.87 Y122.012 E.03033
G1 X79.212 Y121.303 E.03033
G1 X78.454 Y119.99 E.04754
G1 X78.169 Y119.066 E.03032
G1 X78.039 Y117.899 E.03682
G1 X78.039 Y93.588 E.76225
G1 X78.097 Y92.83 E.02384
G1 X78.454 Y91.498 E.04324
G1 X79.212 Y90.184 E.04756
G1 X80.145 Y89.252 E.04135
M204 S1000
; printing object Body7.stl id:0 copy 0
;WIPE_START
G1 F8640
G1 X81.501 Y88.451 E-.36365
G1 X82.425 Y88.166 E-.22327
G1 X83.342 Y88.064 E-.21308
;WIPE_END
G1 Z.6 F720
G1 X155.682 Y91.261 F10800
G1 Z.2 F720
G1 E.8 F2100
M204 S800
;TYPE:Perimeter
;WIDTH:0.419999
G1 F1200
G1 X156.099 Y91.347 E.01335
G1 X156.646 Y91.642 E.01949
G1 X157.11 Y92.055 E.01948
G1 X157.436 Y92.584 E.01948
G1 X157.632 Y93.174 E.01949
G1 X157.671 Y93.733 E.01757
G1 X157.662 Y117.975 E.76009
G1 X157.578 Y118.514 E.0171
G1 X157.349 Y119.091 E.01946
G1 X156.963 Y119.579 E.01951
G1 X156.476 Y119.964 E.01946
G1 X155.898 Y120.194 E.0195
G1 X155.249 Y120.287 E.02056
G1 X83.736 Y120.287 E2.24224
G1 X83.516 Y120.277 E.00691
G1 X82.977 Y120.194 E.0171
G1 X82.399 Y119.964 E.0195
G1 X81.912 Y119.579 E.01946
G1 X81.526 Y119.091 E.01951
G1 X81.297 Y118.514 E.01946
G1 X81.204 Y117.865 E.02056
G1 X81.213 Y93.513 E.76354
G1 X81.297 Y92.974 E.0171
M73 P1 R41
M73 Q1 S41
G1 X81.526 Y92.396 E.01949
G1 X81.912 Y91.908 E.01951
G1 X82.399 Y91.523 E.01946
G1 X82.977 Y91.294 E.01949
G1 X83.626 Y91.201 E.02056
G1 X155.139 Y91.201 E2.24224
G1 X155.49 Y91.222 E.01103
G1 X155.623 Y91.249 E.00426
M204 S1000
G1 X155.763 Y90.867 F10800
M204 S800
;TYPE:External perimeter
G1 F1200
G1 X156.228 Y90.992 E.0151
G1 X156.665 Y91.195 E.01511
G1 X157.06 Y91.472 E.01513
G1 X157.4 Y91.812 E.01508
G1 X157.676 Y92.207 E.01511
G1 X157.88 Y92.643 E.01509
G1 X158.005 Y93.109 E.01513
G1 X158.048 Y93.733 E.01961
G1 X158.048 Y117.754 E.75316
G1 X158.005 Y118.379 E.01964
G1 X157.88 Y118.844 E.0151
G1 X157.676 Y119.281 E.01512
G1 X157.4 Y119.675 E.01508
G1 X157.06 Y120.016 E.0151
G1 X156.665 Y120.292 E.01511
G1 X156.228 Y120.496 E.01512
G1 X155.763 Y120.62 E.01509
G1 X155.265 Y120.664 E.01568
G1 X83.736 Y120.664 E2.24274
G1 X83.112 Y120.62 E.01961
G1 X82.646 Y120.496 E.01512
G1 X82.21 Y120.292 E.01509
G1 X81.815 Y120.016 E.01511
G1 X81.475 Y119.675 E.0151
G1 X81.198 Y119.281 E.0151
G1 X80.995 Y118.844 E.01511
G1 X80.87 Y118.379 E.0151
G1 X80.826 Y117.881 E.01568
G1 X80.826 Y93.733 E.75714
G1 X80.87 Y93.109 E.01961
G1 X80.995 Y92.643 E.01513
G1 X81.198 Y92.207 E.01508
G1 X81.475 Y91.812 E.01513
G1 X81.815 Y91.472 E.01508
G1 X82.21 Y91.195 E.01513
G1 X82.646 Y90.992 E.01508
G1 X83.112 Y90.867 E.01513
G1 X83.609 Y90.823 E.01564
G1 X155.147 Y90.824 E2.24302
G1 X155.703 Y90.863 E.01748
M204 S1000
G1 X155.9 Y91.243 F10800
;WIPE_START
G1 F8640
G1 X156.228 Y90.992 E-.12483
G1 X156.665 Y91.195 E-.11126
G1 X157.06 Y91.472 E-.1114
G1 X157.4 Y91.812 E-.11103
G1 X157.676 Y92.207 E-.11127
G1 X157.88 Y92.643 E-.11115
G1 X158.005 Y93.109 E-.1114
G1 X158.007 Y93.142 E-.00766
;WIPE_END
G1 Z.6 F720
G1 X157.329 Y92.755 F10800
G1 Z.2 F720
G1 E.8 F2100
M204 S800
;TYPE:Solid infill
;WIDTH:0.421631
G1 F1200
G1 X156.593 Y92.02 E.03275
G1 X156.305 Y91.818 E.01108
G1 X155.982 Y91.667 E.01123
G1 X155.611 Y91.573 E.01205
G1 X157.299 Y93.261 E.07517
G1 X157.332 Y93.829 E.01792
G1 X155.043 Y91.541 E.10191
G1 X154.507 Y91.541 E.01688
G1 X157.332 Y94.365 E.12578
G1 X157.332 Y94.901 E.01688
G1 X153.972 Y91.541 E.14963
G1 X153.436 Y91.541 E.01688
G1 X157.332 Y95.436 E.17348
G1 X157.332 Y95.972 E.01688
G1 X152.901 Y91.541 E.19733
G1 X152.365 Y91.541 E.01688
G1 X157.332 Y96.507 E.22118
G1 X157.332 Y97.043 E.01688
G1 X151.83 Y91.541 E.24502
G1 X151.294 Y91.541 E.01688
G1 X157.332 Y97.578 E.26887
G1 X157.332 Y98.114 E.01688
G1 X150.758 Y91.541 E.29274
G1 X150.223 Y91.541 E.01685
G1 X157.332 Y98.65 E.31659
G1 X157.332 Y99.185 E.01685
G1 X149.687 Y91.541 E.34044
G1 X149.152 Y91.541 E.01685
G1 X157.332 Y99.721 E.36428
G1 X157.332 Y100.256 E.01685
M73 C25
G1 X148.616 Y91.541 E.38813
G1 X148.08 Y91.541 E.01688
G1 X157.332 Y100.792 E.412
G1 X157.332 Y101.327 E.01685
G1 X147.545 Y91.541 E.43583
G1 X147.009 Y91.541 E.01688
G1 X157.332 Y101.863 E.4597
G1 X157.332 Y102.399 E.01688
G1 X146.474 Y91.541 E.48354
G1 X145.938 Y91.541 E.01688
G1 X157.332 Y102.934 E.50739
G1 X157.332 Y103.47 E.01688
M73 Q2 S41
G1 X145.403 Y91.541 E.53124
G1 X144.867 Y91.541 E.01688
M73 P2 R41
M73 D25
G1 X157.332 Y104.005 E.55509
G1 X157.332 Y104.541 E.01688
G1 X144.331 Y91.541 E.57896
G1 X143.796 Y91.541 E.01685
G1 X157.332 Y105.077 E.60281
G1 X157.332 Y105.612 E.01685
G1 X143.26 Y91.541 E.62665
G1 X142.725 Y91.541 E.01685
G1 X157.332 Y106.148 E.6505
G1 X157.332 Y106.683 E.01685
G1 X142.189 Y91.541 E.67435
G1 X141.653 Y91.541 E.01688
M73 P2 R40
G1 X157.332 Y107.219 E.69822
G1 X157.332 Y107.754 E.01685
G1 X141.118 Y91.54 E.72207
G1 X140.582 Y91.54 E.01688
G1 X157.332 Y108.29 E.74594
G1 X157.332 Y108.826 E.01688
G1 X140.047 Y91.54 E.76978
G1 X139.511 Y91.54 E.01688
G1 X157.332 Y109.361 E.79363
G1 X157.332 Y109.897 E.01688
G1 X138.976 Y91.54 E.81748
G1 X138.44 Y91.54 E.01688
G1 X157.332 Y110.432 E.84133
G1 X157.332 Y110.968 E.01688
G1 X137.904 Y91.54 E.8652
G1 X137.369 Y91.54 E.01685
G1 X157.332 Y111.503 E.88902
G1 X157.332 Y112.039 E.01688
G1 X136.833 Y91.54 E.91289
G1 X136.298 Y91.54 E.01685
G1 X157.332 Y112.575 E.93674
G1 X157.332 Y113.11 E.01685
G1 X135.762 Y91.54 E.96059
G1 X135.226 Y91.54 E.01688
G1 X157.332 Y113.646 E.98446
G1 X157.332 Y114.181 E.01685
M73 Q2 S40
G1 X134.691 Y91.54 E1.00828
G1 X134.155 Y91.54 E.01688
M73 P3 R40
M73 Q3 S40
G1 X157.332 Y114.717 E1.03215
G1 X157.332 Y115.252 E.01685
G1 X133.62 Y91.54 E1.05598
G1 X133.084 Y91.54 E.01688
G1 X157.332 Y115.788 E1.07985
G1 X157.332 Y116.324 E.01688
G1 X132.549 Y91.54 E1.1037
G1 X132.013 Y91.54 E.01688
G1 X157.332 Y116.859 E1.12754
G1 X157.332 Y117.395 E.01688
G1 X131.477 Y91.54 E1.15141
G1 X130.942 Y91.54 E.01685
G1 X157.325 Y117.924 E1.17495
G1 X157.296 Y118.254 E.01043
G1 X157.259 Y118.393 E.00453
G1 X130.406 Y91.54 E1.19586
G1 X129.871 Y91.54 E.01685
G1 X157.116 Y118.786 E1.21334
G1 X157.054 Y118.921 E.00468
G1 X156.914 Y119.12 E.00766
G1 X129.335 Y91.54 E1.22821
G1 X128.799 Y91.54 E.01688
G1 X156.661 Y119.402 E1.24079
G1 X156.357 Y119.633 E.01202
G1 X128.264 Y91.54 E1.25108
G1 X127.728 Y91.54 E.01688
G1 X156 Y119.812 E1.25905
G1 X155.57 Y119.918 E.01395
M73 P4 R40
M73 Q4 S40
G1 X127.193 Y91.54 E1.26375
G1 X126.657 Y91.54 E.01688
G1 X155.064 Y119.948 E1.26509
G1 X154.529 Y119.948 E.01685
G1 X126.122 Y91.54 E1.26509
G1 X125.586 Y91.54 E.01688
M73 C24
G1 X153.993 Y119.948 E1.26509
G1 X153.458 Y119.948 E.01685
G1 X125.05 Y91.54 E1.26511
G1 X124.515 Y91.54 E.01685
M73 D24
G1 X152.922 Y119.948 E1.26509
G1 X152.386 Y119.948 E.01688
G1 X123.979 Y91.54 E1.26509
G1 X123.444 Y91.54 E.01685
G1 X151.851 Y119.948 E1.26509
G1 X151.315 Y119.948 E.01688
M73 P4 R39
G1 X122.908 Y91.54 E1.26509
G1 X122.372 Y91.54 E.01688
G1 X150.78 Y119.948 E1.26511
G1 X150.244 Y119.948 E.01688
G1 X121.837 Y91.54 E1.26509
G1 X121.301 Y91.54 E.01688
G1 X149.709 Y119.948 E1.26511
G1 X149.173 Y119.948 E.01688
M73 P5 R39
G1 X120.766 Y91.54 E1.26509
G1 X120.23 Y91.54 E.01688
M73 Q5 S40
G1 X148.637 Y119.948 E1.26509
G1 X148.102 Y119.948 E.01685
G1 X119.695 Y91.54 E1.26509
G1 X119.159 Y91.54 E.01688
G1 X147.566 Y119.948 E1.26509
G1 X147.031 Y119.948 E.01685
G1 X118.623 Y91.54 E1.26511
G1 X118.088 Y91.54 E.01685
M73 Q5 S39
G1 X146.495 Y119.948 E1.26509
G1 X145.959 Y119.948 E.01688
G1 X117.552 Y91.54 E1.26509
G1 X117.017 Y91.54 E.01685
G1 X145.424 Y119.948 E1.26509
G1 X144.888 Y119.948 E.01688
G1 X116.481 Y91.54 E1.26509
G1 X115.945 Y91.54 E.01688
G1 X144.353 Y119.948 E1.26511
G1 X143.817 Y119.948 E.01688
G1 X115.41 Y91.54 E1.26509
G1 X114.874 Y91.54 E.01688
G1 X143.282 Y119.948 E1.26511
G1 X142.746 Y119.948 E.01688
G1 X114.339 Y91.54 E1.26509
G1 X113.803 Y91.54 E.01688
M73 P6 R39
M73 Q6 S39
G1 X142.21 Y119.948 E1.26509
G1 X141.675 Y119.948 E.01685
G1 X113.268 Y91.54 E1.26509
G1 X112.732 Y91.54 E.01688
G1 X141.139 Y119.948 E1.26509
G1 X140.604 Y119.948 E.01685
G1 X112.196 Y91.54 E1.26511
G1 X111.661 Y91.54 E.01685
G1 X140.068 Y119.948 E1.26509
G1 X139.533 Y119.948 E.01685
G1 X111.125 Y91.54 E1.26511
G1 X110.59 Y91.54 E.01685
G1 X138.997 Y119.948 E1.26509
G1 X138.461 Y119.948 E.01688
M73 C23
G1 X110.054 Y91.54 E1.26509
G1 X109.518 Y91.54 E.01688
G1 X137.926 Y119.948 E1.26511
G1 X137.39 Y119.948 E.01688
M73 D23
G1 X108.983 Y91.54 E1.26509
G1 X108.447 Y91.54 E.01688
G1 X136.855 Y119.948 E1.26511
G1 X136.319 Y119.948 E.01688
G1 X107.912 Y91.54 E1.26509
G1 X107.376 Y91.54 E.01688
M73 P7 R39
M73 Q7 S39
G1 X135.783 Y119.948 E1.26509
M73 P7 R38
G1 X135.248 Y119.948 E.01685
G1 X106.841 Y91.54 E1.26509
G1 X106.305 Y91.54 E.01688
G1 X134.712 Y119.948 E1.26509
G1 X134.177 Y119.948 E.01685
G1 X105.769 Y91.54 E1.26511
G1 X105.234 Y91.54 E.01685
G1 X133.641 Y119.948 E1.26509
G1 X133.106 Y119.948 E.01685
G1 X104.698 Y91.54 E1.26511
G1 X104.163 Y91.54 E.01685
G1 X132.57 Y119.948 E1.26509
G1 X132.034 Y119.948 E.01688
G1 X103.627 Y91.54 E1.26509
G1 X103.091 Y91.54 E.01688
G1 X131.499 Y119.948 E1.26511
G1 X130.963 Y119.948 E.01688
M73 Q7 S38
G1 X102.556 Y91.54 E1.26509
G1 X102.02 Y91.54 E.01688
G1 X130.428 Y119.948 E1.26511
G1 X129.892 Y119.948 E.01688
G1 X101.485 Y91.54 E1.26509
G1 X100.949 Y91.54 E.01688
M73 P8 R38
G1 X129.357 Y119.948 E1.26511
G1 X128.821 Y119.948 E.01688
M73 Q8 S38
G1 X100.413 Y91.54 E1.26511
G1 X99.878 Y91.54 E.01685
G1 X128.285 Y119.948 E1.26509
G1 X127.75 Y119.948 E.01685
G1 X99.342 Y91.54 E1.26511
G1 X98.807 Y91.54 E.01685
G1 X127.214 Y119.948 E1.26509
G1 X126.679 Y119.948 E.01685
G1 X98.271 Y91.54 E1.26511
G1 X97.736 Y91.54 E.01685
G1 X126.143 Y119.948 E1.26509
G1 X125.607 Y119.948 E.01688
G1 X97.2 Y91.54 E1.26509
G1 X96.664 Y91.54 E.01688
G1 X125.072 Y119.948 E1.26511
G1 X124.536 Y119.948 E.01688
G1 X96.129 Y91.54 E1.26509
G1 X95.593 Y91.54 E.01688
G1 X124.001 Y119.948 E1.26511
G1 X123.465 Y119.948 E.01688
G1 X95.058 Y91.54 E1.26509
G1 X94.522 Y91.54 E.01688
M73 C22
G1 X122.93 Y119.948 E1.26511
G1 X122.394 Y119.948 E.01688
M73 P9 R38
M73 Q9 S38
G1 X93.986 Y91.54 E1.26511
G1 X93.451 Y91.54 E.01685
G1 X121.858 Y119.948 E1.26509
G1 X121.323 Y119.948 E.01685
M73 D22
G1 X92.915 Y91.54 E1.26511
G1 X92.38 Y91.54 E.01685
G1 X120.787 Y119.948 E1.26509
G1 X120.252 Y119.948 E.01685
G1 X91.844 Y91.54 E1.26511
G1 X91.309 Y91.54 E.01685
M73 P9 R37
G1 X119.716 Y119.948 E1.26509
G1 X119.181 Y119.948 E.01685
G1 X90.773 Y91.54 E1.26511
G1 X90.237 Y91.54 E.01688
G1 X118.645 Y119.948 E1.26511
G1 X118.109 Y119.948 E.01688
G1 X89.702 Y91.54 E1.26509
G1 X89.166 Y91.54 E.01688
G1 X117.574 Y119.948 E1.26511
G1 X117.038 Y119.948 E.01688
G1 X88.631 Y91.54 E1.26509
G1 X88.095 Y91.54 E.01688
G1 X116.503 Y119.948 E1.26511
G1 X115.967 Y119.948 E.01688
M73 P10 R37
M73 Q10 S38
G1 X87.559 Y91.54 E1.26511
G1 X87.024 Y91.54 E.01685
M73 Q10 S37
G1 X115.432 Y119.948 E1.26511
G1 X114.896 Y119.948 E.01688
G1 X86.488 Y91.54 E1.26511
G1 X85.953 Y91.54 E.01685
G1 X114.36 Y119.948 E1.26509
G1 X113.825 Y119.948 E.01685
G1 X85.417 Y91.54 E1.26511
G1 X84.882 Y91.54 E.01685
G1 X113.289 Y119.948 E1.26509
G1 X112.754 Y119.948 E.01685
G1 X84.346 Y91.54 E1.26511
G1 X83.81 Y91.54 E.01688
G1 X112.218 Y119.948 E1.26511
G1 X111.682 Y119.948 E.01688
G1 X83.306 Y91.571 E1.26371
G1 X82.892 Y91.667 E.01338
G1 X82.875 Y91.676 E.00061
G1 X111.147 Y119.948 E1.25905
G1 X110.611 Y119.948 E.01688
G1 X82.518 Y91.854 E1.2511
G1 X82.214 Y92.086 E.01204
G1 X110.076 Y119.948 E1.24079
G1 X109.54 Y119.948 E.01688
M73 P11 R37
G1 X81.96 Y92.368 E1.22823
G1 X81.821 Y92.566 E.00762
M73 Q11 S37
G1 X81.758 Y92.701 E.00469
G1 X109.005 Y119.948 E1.2134
G1 X108.469 Y119.948 E.01688
G1 X81.616 Y93.094 E1.19588
G1 X81.578 Y93.233 E.00454
G1 X81.549 Y93.564 E.01046
G1 X107.933 Y119.948 E1.17497
G1 X107.398 Y119.948 E.01685
G1 X81.543 Y94.093 E1.15141
G1 X81.543 Y94.628 E.01685
M73 C21
G1 X106.862 Y119.948 E1.12757
G1 X106.327 Y119.948 E.01685
G1 X81.543 Y95.164 E1.10372
G1 X81.543 Y95.699 E.01685
G1 X105.791 Y119.948 E1.07987
G1 X105.256 Y119.948 E.01685
M73 D21
G1 X81.543 Y96.235 E1.05602
G1 X81.543 Y96.771 E.01688
G1 X104.72 Y119.948 E1.03215
G1 X104.184 Y119.948 E.01688
G1 X81.543 Y97.306 E1.00831
G1 X81.543 Y97.842 E.01688
M73 P11 R36
G1 X103.649 Y119.948 E.98446
G1 X103.113 Y119.948 E.01688
G1 X81.543 Y98.377 E.96061
G1 X81.543 Y98.913 E.01688
G1 X102.578 Y119.948 E.93676
G1 X102.042 Y119.948 E.01688
M73 P12 R36
G1 X81.543 Y99.448 E.91291
G1 X81.543 Y99.984 E.01688
M73 Q12 S37
G1 X101.506 Y119.948 E.88904
G1 X100.971 Y119.948 E.01685
G1 X81.543 Y100.52 E.8652
G1 X81.543 Y101.055 E.01685
G1 X100.435 Y119.948 E.84135
G1 X99.9 Y119.948 E.01685
G1 X81.543 Y101.591 E.8175
G1 X81.543 Y102.126 E.01685
G1 X99.364 Y119.948 E.79365
G1 X98.829 Y119.948 E.01685
G1 X81.543 Y102.662 E.76981
G1 X81.543 Y103.197 E.01685
G1 X98.293 Y119.948 E.74596
G1 X97.757 Y119.948 E.01688
G1 X81.543 Y103.733 E.72209
G1 X81.543 Y104.269 E.01688
G1 X97.222 Y119.948 E.69824
G1 X96.686 Y119.948 E.01688
M73 Q12 S36
G1 X81.543 Y104.804 E.67439
G1 X81.543 Y105.34 E.01688
G1 X96.151 Y119.948 E.65055
G1 X95.615 Y119.948 E.01688
G1 X81.543 Y105.875 E.6267
G1 X81.543 Y106.411 E.01688
G1 X95.08 Y119.948 E.60285
G1 X94.544 Y119.948 E.01688
G1 X81.543 Y106.947 E.57898
G1 X81.543 Y107.482 E.01685
G1 X94.008 Y119.948 E.55513
G1 X93.473 Y119.948 E.01685
G1 X81.543 Y108.018 E.53128
G1 X81.543 Y108.553 E.01685
G1 X92.937 Y119.948 E.50744
G1 X92.402 Y119.948 E.01685
G1 X81.543 Y109.089 E.48359
G1 X81.543 Y109.624 E.01685
G1 X91.866 Y119.948 E.45974
G1 X91.33 Y119.948 E.01688
G1 X81.543 Y110.16 E.43587
G1 X81.543 Y110.696 E.01688
G1 X90.795 Y119.948 E.41202
G1 X90.259 Y119.948 E.01688
G1 X81.543 Y111.231 E.38818
