; generated by PrusaSlicer 2.6.0+MacOS-x64 on 2023-11-24 at 05:35:41 UTC


;
;
; 

; external perimeters extrusion width = 0.45mm
; perimeters extrusion width = 0.45mm
; infill extrusion width = 0.45mm
; solid infill extrusion width = 0.45mm
; top infill extrusion width = 0.40mm
; first layer extrusion width = 0.42mm

M73 P0 R87
M73 Q0 S88
M201 X1000 Y1000 Z200 E5000 ; sets maximum accelerations, mm/sec^2
M203 X200 Y200 Z12 E120 ; sets maximum feedrates, mm / sec
M204 S1250 T1250 ; sets acceleration (S) and retract acceleration (R), mm/sec^2
M205 X8.00 Y8.00 Z0.40 E4.50 ; sets the jerk limits, mm/sec
M205 S0 T0 ; sets the minimum extruding and travel feed rate, mm/sec
;TYPE:Custom
M862.3 P "MK3S" ; printer model check
M862.1 P0.4 ; nozzle diameter check
M115 U3.13.0 ; tell printer latest fw version
G90 ; use absolute coordinates
M83 ; extruder relative mode
M104 S215 ; set extruder temp
M140 S60 ; set bed temp
M190 S60 ; wait for bed temp
M109 S215 ; wait for extruder temp
G28 W ; home all without mesh bed level
G80 ; mesh bed leveling

G1 Z0.2 F720
G1 Y-3 F1000 ; go outside print area
G92 E0
G1 X60 E9 F1000 ; intro line
G1 X100 E12.5 F1000 ; intro line

G92 E0
M221 S95

; Don't change E values below. Excessive value can damage the printer.
M907 E430 ; set extruder motor current
G21 ; set units to millimeters
G90 ; use absolute coordinates
M83 ; use relative distances for extrusion
M900 K0.05 ; Filament gcode LA 1.5
M900 K30 ; Filament gcode LA 1.0
M107
;LAYER_CHANGE
;Z:0.2
;HEIGHT:0.2
;BEFORE_LAYER_CHANGE
G92 E0.0
;0.2


G1 E-.8 F2100
G1 Z.4 F720
;AFTER_LAYER_CHANGE
;0.2
G1 X95.079 Y79.16 F10800
G1 Z.2 F720
G1 E.8 F2100
M204 S800
;TYPE:Skirt/Brim
;WIDTH:0.42
G1 F1200
G1 X95.781 Y78.519 E.02981
G1 X96.625 Y78.082 E.0298
G1 X97.224 Y77.921 E.01945
G1 X97.856 Y77.859 E.01991
G1 X152.447 Y77.878 E1.71166
G1 X153.375 Y78.082 E.02979
G1 X154.219 Y78.519 E.0298
G1 X154.921 Y79.16 E.02981
G1 X155.433 Y79.96 E.02978
G1 X155.721 Y80.866 E.02981
G1 X155.764 Y81.815 E.02979
G1 X155.56 Y82.743 E.02979
G1 X155.295 Y83.329 E.02017
G1 X128.158 Y130.319 E1.70138
G1 X127.784 Y130.841 E.02013
G1 X127.345 Y131.279 E.01944
G1 X126.238 Y131.918 E.04008
G1 X125.639 Y132.079 E.01945
G1 X124.69 Y132.122 E.02979
G1 X123.455 Y131.791 E.04009
G1 X122.655 Y131.279 E.02978
G1 X122.216 Y130.841 E.01944
G1 X121.842 Y130.319 E.02013
G1 X94.705 Y83.329 E1.70138
G1 X94.44 Y82.743 E.02017
G1 X94.236 Y81.815 E.02979
G1 X94.279 Y80.866 E.02979
G1 X94.567 Y79.96 E.02981
G1 X95.047 Y79.21 E.02792
M204 S1000
; printing object Body1.stl id:0 copy 0
;WIPE_START
G1 F8640
G1 X95.781 Y78.519 E-.23277
G1 X96.625 Y78.082 E-.21946
G1 X97.224 Y77.921 E-.14322
G1 X97.856 Y77.859 E-.14663
G1 X98.107 Y77.859 E-.05792
;WIPE_END
G1 Z.6 F720
G1 X97.538 Y81.18 F10800
G1 Z.2 F720
G1 E.8 F2100
M204 S800
;TYPE:Perimeter
;WIDTH:0.419999
G1 F1200
G1 X97.625 Y81.092 E.00388
G1 X97.915 Y81.022 E.00935
G1 X152.05 Y81.022 E1.69736
G1 X152.318 Y81.069 E.00853
M73 Q0 S87
G1 X152.512 Y81.217 E.00765
G1 X152.605 Y81.443 E.00766
G1 X152.613 Y81.505 E.00196
G1 X152.529 Y81.791 E.00935
G1 X125.461 Y128.662 E1.69706
G1 X125.238 Y128.908 E.01041
G1 X125 Y128.971 E.00772
G1 X124.762 Y128.908 E.00772
G1 X124.556 Y128.692 E.00936
G1 X97.488 Y81.821 E1.69706
G1 X97.387 Y81.505 E.0104
G1 X97.451 Y81.267 E.00773
G1 X97.495 Y81.222 E.00197
M204 S1000
G1 X97.257 Y80.899 F10800
M204 S800
;TYPE:External perimeter
G1 F1200
G1 X97.538 Y80.72 E.01045
G1 X97.89 Y80.645 E.01128
G1 X152.05 Y80.645 E1.69815
G1 X152.359 Y80.677 E.00974
G1 X152.654 Y80.831 E.01043
G1 X152.879 Y81.077 E.01045
G1 X152.979 Y81.394 E.01042
G1 X152.979 Y81.616 E.00696
G1 X152.868 Y81.958 E.01127
G1 X125.788 Y128.85 E1.69782
G1 X125.674 Y129.012 E.00621
G1 X125.428 Y129.237 E.01045
G1 X125.111 Y129.337 E.01042
G1 X124.778 Y129.323 E.01045
G1 X124.483 Y129.169 E.01043
G1 X124.242 Y128.902 E.01128
G1 X97.162 Y82.01 E1.69782
G1 X97.079 Y81.83 E.00621
M73 P0 R86
G1 X97.007 Y81.505 E.01044
G1 X97.078 Y81.18 E.01043
G1 X97.225 Y80.95 E.00856
M204 S1000
G1 X97.578 Y80.99 F10800
;WIPE_START
G1 F8640
G1 X97.538 Y80.72 E-.08969
G1 X97.89 Y80.645 E-.0831
G1 X100.606 Y80.645 E-.62721
;WIPE_END
G1 Z.6 F720
G1 X151.478 Y81.192 F10800
G1 Z.2 F720
G1 E.8 F2100
M204 S800
;TYPE:Solid infill
;WIDTH:0.421951
G1 F1200
G1 X152.116 Y81.829 E.02841
G1 X151.919 Y82.169 E.01238
G1 X151.112 Y81.361 E.03599
G1 X150.576 Y81.361 E.01689
G1 X151.723 Y82.508 E.05112
G1 X151.527 Y82.848 E.01237
G1 X150.04 Y81.361 E.06628
G1 X149.504 Y81.361 E.01689
G1 X151.331 Y83.188 E.08143
G1 X151.134 Y83.528 E.01238
G1 X148.968 Y81.361 E.09656
G1 X148.432 Y81.361 E.01689
G1 X150.938 Y83.868 E.11172
G1 X150.742 Y84.207 E.01234
G1 X147.896 Y81.361 E.12685
G1 X147.36 Y81.361 E.01689
G1 X150.546 Y84.547 E.142
G1 X150.35 Y84.887 E.01237
G1 X146.824 Y81.361 E.15716
G1 X146.288 Y81.361 E.01689
G1 X150.153 Y85.227 E.17229
G1 X149.957 Y85.567 E.01237
G1 X145.752 Y81.361 E.18744
G1 X145.216 Y81.361 E.01689
G1 X149.761 Y85.906 E.20258
G1 X149.565 Y86.246 E.01237
G1 X144.68 Y81.361 E.21773
G1 X144.144 Y81.361 E.01689
G1 X149.368 Y86.586 E.23286
G1 X149.172 Y86.926 E.01237
G1 X143.608 Y81.361 E.24802
G1 X143.072 Y81.361 E.01689
G1 X148.976 Y87.266 E.26317
G1 X148.78 Y87.605 E.01234
G1 X142.535 Y81.361 E.27832
G1 X141.999 Y81.361 E.01689
G1 X148.583 Y87.945 E.29346
G1 X148.387 Y88.285 E.01237
G1 X141.463 Y81.361 E.30861
G1 X140.927 Y81.361 E.01689
G1 X148.191 Y88.625 E.32376
G1 X147.995 Y88.965 E.01237
G1 X140.391 Y81.361 E.33892
G1 X139.855 Y81.361 E.01689
G1 X147.798 Y89.304 E.35403
G1 X147.602 Y89.644 E.01237
G1 X139.319 Y81.361 E.36918
G1 X138.783 Y81.361 E.01689
G1 X147.406 Y89.984 E.38434
G1 X147.21 Y90.324 E.01237
G1 X138.247 Y81.361 E.39949
G1 X137.711 Y81.361 E.01689
G1 X147.014 Y90.664 E.41465
G1 X146.817 Y91.003 E.01236
G1 X137.175 Y81.361 E.42975
G1 X136.639 Y81.361 E.01689
G1 X146.621 Y91.343 E.44491
G1 X146.425 Y91.683 E.01237
G1 X136.103 Y81.361 E.46006
G1 X135.567 Y81.361 E.01689
G1 X146.229 Y92.023 E.47522
G1 X146.032 Y92.363 E.01238
G1 X135.031 Y81.361 E.49035
G1 X134.495 Y81.361 E.01689
G1 X145.836 Y92.702 E.50548
G1 X145.64 Y93.042 E.01237
G1 X133.959 Y81.361 E.52064
G1 X133.423 Y81.361 E.01689
G1 X145.444 Y93.382 E.53579
G1 X145.247 Y93.722 E.01238
G1 X132.887 Y81.361 E.55092
G1 X132.351 Y81.361 E.01689
G1 X145.051 Y94.062 E.56608
G1 X144.855 Y94.401 E.01234
M73 P1 R86
M73 Q1 S87
G1 X131.815 Y81.361 E.58121
G1 X131.279 Y81.361 E.01689
G1 X144.659 Y94.741 E.59636
G1 X144.463 Y95.081 E.01237
G1 X130.743 Y81.361 E.61152
G1 X130.207 Y81.361 E.01689
G1 X144.266 Y95.421 E.62665
G1 X144.07 Y95.761 E.01237
G1 X129.671 Y81.361 E.6418
G1 X129.135 Y81.361 E.01689
G1 X143.874 Y96.1 E.65693
G1 X143.678 Y96.44 E.01237
G1 X128.599 Y81.361 E.67209
G1 X128.063 Y81.361 E.01689
G1 X143.481 Y96.78 E.68722
G1 X143.285 Y97.12 E.01237
G1 X127.527 Y81.361 E.70237
G1 X126.991 Y81.361 E.01689
G1 X143.089 Y97.46 E.71753
G1 X142.893 Y97.799 E.01234
G1 X126.455 Y81.361 E.73266
G1 X125.919 Y81.361 E.01689
G1 X142.696 Y98.139 E.74779
G1 X142.5 Y98.479 E.01237
G1 X125.383 Y81.361 E.76295
G1 X124.846 Y81.361 E.01692
G1 X142.304 Y98.819 E.77812
G1 X142.108 Y99.159 E.01237
G1 X124.31 Y81.361 E.79328
G1 X123.774 Y81.361 E.01689
G1 X141.912 Y99.498 E.80841
G1 X141.715 Y99.838 E.01238
G1 X123.238 Y81.361 E.82354
G1 X122.702 Y81.361 E.01689
G1 X141.519 Y100.178 E.8387
G1 X141.323 Y100.518 E.01237
G1 X122.166 Y81.361 E.85385
G1 X121.63 Y81.361 E.01689
G1 X141.127 Y100.857 E.86898
G1 X140.93 Y101.197 E.01238
G1 X121.094 Y81.361 E.88411
G1 X120.558 Y81.361 E.01689
M73 Q1 S86
G1 X140.734 Y101.537 E.89927
G1 X140.538 Y101.877 E.01237
G1 X120.022 Y81.361 E.91442
G1 X119.486 Y81.361 E.01689
G1 X140.342 Y102.217 E.92958
G1 X140.145 Y102.556 E.01236
G1 X118.95 Y81.361 E.94469
G1 X118.414 Y81.361 E.01689
G1 X139.949 Y102.896 E.95984
G1 X139.753 Y103.236 E.01237
G1 X117.878 Y81.361 E.97499
G1 X117.342 Y81.361 E.01689
G1 X139.557 Y103.576 E.99015
G1 X139.36 Y103.916 E.01238
G1 X116.806 Y81.361 E1.00528
G1 X116.27 Y81.361 E.01689
G1 X139.164 Y104.255 E1.02041
G1 X138.968 Y104.595 E.01237
M73 P1 R85
G1 X115.734 Y81.361 E1.03557
G1 X115.198 Y81.361 E.01689
G1 X138.772 Y104.935 E1.05072
G1 X138.576 Y105.275 E.01237
G1 X114.662 Y81.361 E1.06587
G1 X114.126 Y81.361 E.01689
G1 X138.379 Y105.615 E1.08101
G1 X138.183 Y105.954 E.01234
G1 X113.59 Y81.361 E1.09614
G1 X113.054 Y81.361 E.01689
G1 X137.987 Y106.294 E1.11129
G1 X137.791 Y106.634 E.01237
G1 X112.518 Y81.361 E1.12645
G1 X111.982 Y81.361 E.01689
G1 X137.594 Y106.974 E1.14158
G1 X137.398 Y107.314 E.01237
M73 P2 R85
M73 Q2 S86
G1 X111.446 Y81.361 E1.15673
G1 X110.91 Y81.361 E.01689
G1 X137.202 Y107.653 E1.17186
G1 X137.006 Y107.993 E.01237
G1 X110.374 Y81.361 E1.18702
G1 X109.838 Y81.361 E.01689
G1 X136.809 Y108.333 E1.20215
G1 X136.613 Y108.673 E.01237
G1 X109.302 Y81.361 E1.2173
G1 X108.766 Y81.361 E.01689
G1 X136.417 Y109.013 E1.23246
G1 X136.221 Y109.352 E.01234
G1 X108.23 Y81.361 E1.24759
G1 X107.693 Y81.361 E.01692
G1 X136.025 Y109.692 E1.26277
G1 X135.828 Y110.032 E.01238
G1 X107.157 Y81.361 E1.2779
G1 X106.621 Y81.361 E.01689
G1 X135.632 Y110.372 E1.29305
G1 X135.436 Y110.712 E.01237
G1 X106.085 Y81.361 E1.30821
G1 X105.549 Y81.361 E.01689
G1 X135.24 Y111.051 E1.32334
G1 X135.043 Y111.391 E.01238
G1 X105.013 Y81.361 E1.33847
G1 X104.477 Y81.361 E.01689
G1 X134.847 Y111.731 E1.35363
G1 X134.651 Y112.071 E.01237
G1 X103.941 Y81.361 E1.36878
G1 X103.405 Y81.361 E.01689
G1 X134.455 Y112.411 E1.38393
G1 X134.258 Y112.75 E.01236
M73 Q2 S85
G1 X102.869 Y81.361 E1.39904
G1 X102.333 Y81.361 E.01689
G1 X134.062 Y113.09 E1.4142
G1 X133.866 Y113.43 E.01237
G1 X101.797 Y81.361 E1.42935
G1 X101.261 Y81.361 E.01689
G1 X133.67 Y113.77 E1.44451
G1 X133.473 Y114.11 E.01238
G1 X100.725 Y81.361 E1.45964
G1 X100.189 Y81.361 E.01689
G1 X133.277 Y114.449 E1.47477
G1 X133.081 Y114.789 E.01237
M73 P2 R84
G1 X99.653 Y81.361 E1.48992
G1 X99.117 Y81.361 E.01689
G1 X132.885 Y115.129 E1.50508
G1 X132.689 Y115.469 E.01237
M73 P3 R84
G1 X98.581 Y81.361 E1.52023
G1 X98.045 Y81.361 E.01689
M73 Q3 S85
G1 X132.492 Y115.809 E1.53536
G1 X132.296 Y116.148 E.01234
G1 X97.767 Y81.619 E1.539
G1 X98.491 Y82.879 E.0458
G1 X132.1 Y116.488 E1.49799
G1 X131.904 Y116.828 E.01237
G1 X99.224 Y84.148 E1.45658
G1 X99.956 Y85.417 E.04617
G1 X131.707 Y117.168 E1.41518
G1 X131.511 Y117.508 E.01237
G1 X100.689 Y86.686 E1.37377
G1 X101.422 Y87.954 E.04616
G1 X131.315 Y117.847 E1.33237
G1 X131.119 Y118.187 E.01237
G1 X102.155 Y89.223 E1.29096
G1 X102.887 Y90.492 E.04617
G1 X130.922 Y118.527 E1.24955
G1 X130.726 Y118.867 E.01237
G1 X103.62 Y91.76 E1.20817
G1 X104.353 Y93.029 E.04619
G1 X130.53 Y119.207 E1.16676
G1 X130.334 Y119.546 E.01234
G1 X105.085 Y94.298 E1.12535
G1 X105.818 Y95.567 E.04619
G1 X130.138 Y119.886 E1.08395
G1 X129.941 Y120.226 E.01238
G1 X106.551 Y96.835 E1.04254
G1 X107.283 Y98.104 E.04617
G1 X129.745 Y120.566 E1.00116
G1 X129.549 Y120.906 E.01237
G1 X108.016 Y99.373 E.95975
G1 X108.749 Y100.641 E.04616
G1 X129.353 Y121.245 E.91834
G1 X129.156 Y121.585 E.01238
G1 X109.481 Y101.91 E.87694
G1 X110.214 Y103.179 E.04619
G1 X128.96 Y121.925 E.83553
G1 X128.764 Y122.265 E.01237
G1 X110.947 Y104.448 E.79412
G1 X111.679 Y105.716 E.04614
M73 Q3 S84
G1 X128.568 Y122.605 E.75276
G1 X128.371 Y122.944 E.01236
G1 X112.412 Y106.985 E.71131
G1 X113.145 Y108.254 E.04619
G1 X128.175 Y123.284 E.6699
G1 X127.979 Y123.624 E.01237
G1 X113.877 Y109.522 E.62854
G1 X114.61 Y110.791 E.04619
G1 X127.783 Y123.964 E.58714
G1 X127.586 Y124.304 E.01238
G1 X115.343 Y112.06 E.54571
G1 X116.075 Y113.329 E.04617
G1 X127.39 Y124.643 E.5043
G1 X127.194 Y124.983 E.01237
G1 X116.808 Y114.597 E.46292
G1 X117.541 Y115.866 E.04619
G1 X126.998 Y125.323 E.42151
G1 X126.802 Y125.663 E.01237
G1 X118.273 Y117.135 E.38012
G1 X119.006 Y118.403 E.04616
G1 X126.605 Y126.003 E.33872
G1 X126.409 Y126.342 E.01234
G1 X119.739 Y119.672 E.29729
G1 X120.472 Y120.941 E.04619
G1 X126.213 Y126.682 E.25588
G1 X126.017 Y127.022 E.01237
G1 X121.204 Y122.21 E.2145
G1 X121.937 Y123.478 E.04616
M73 P4 R84
G1 X125.82 Y127.362 E.17309
G1 X125.624 Y127.702 E.01237
G1 X122.67 Y124.747 E.13169
G1 X123.402 Y126.016 E.04617
G1 X125.428 Y128.041 E.09028
M73 P4 R83
G1 X125.232 Y128.381 E.01237
G1 X123.671 Y126.821 E.06955
M204 S1000
; stop printing object Body1.stl id:0 copy 0
M106 S84.15
;LAYER_CHANGE
;Z:0.35
;HEIGHT:0.15
;BEFORE_LAYER_CHANGE
G92 E0.0
;0.35


;WIPE_START
G1 F8640
G1 X125.232 Y128.381 E-.50957
G1 X125.428 Y128.041 E-.09062
G1 X124.816 Y127.429 E-.19981
;WIPE_END
G1 Z.6 F720
;AFTER_LAYER_CHANGE
;0.35
M104 S210 ; set temperature
G1 X121.334 Y129.44 F10800
M73 Q4 S84
G1 Z.35 F720
G1 E.8 F2100
;TYPE:Skirt/Brim
;WIDTH:0.42
G1 F3000
G1 X94.705 Y83.329 E1.28779
G1 X94.44 Y82.743 E.01555
G1 X94.236 Y81.815 E.02298
G1 X94.279 Y80.866 E.02298
G1 X94.567 Y79.96 E.02299
G1 X95.079 Y79.16 E.02297
G1 X95.781 Y78.519 E.02299
G1 X96.625 Y78.082 E.02299
G1 X97.224 Y77.921 E.015
G1 X97.856 Y77.859 E.01536
G1 X152.447 Y77.878 E1.32028
G1 X153.375 Y78.082 E.02298
G1 X154.219 Y78.519 E.02299
G1 X154.921 Y79.16 E.02299
G1 X155.433 Y79.96 E.02297
G1 X155.721 Y80.866 E.02299
G1 X155.764 Y81.815 E.02298
G1 X155.56 Y82.743 E.02298
G1 X155.295 Y83.329 E.01555
G1 X128.158 Y130.319 E1.31235
G1 X127.784 Y130.841 E.01553
G1 X127.345 Y131.279 E.015
G1 X126.238 Y131.918 E.03091
G1 X125.639 Y132.079 E.015
G1 X124.69 Y132.122 E.02298
G1 X123.455 Y131.791 E.03092
G1 X122.655 Y131.279 E.02297
G1 X122.216 Y130.841 E.015
G1 X121.842 Y130.319 E.01553
G1 X121.364 Y129.492 E.0231
; printing object Body1.stl id:0 copy 0
;WIPE_START
G1 F8640
G1 X119.631 Y126.492 E-.8
;WIPE_END
G1 Z.75 F720
G1 X97.438 Y81.08 F10800
G1 Z.35 F720
G1 E.8 F2100
M204 S800
;TYPE:Perimeter
;WIDTH:0.449999
G1 F2700
G1 X97.552 Y80.966 E.0042
G1 X97.905 Y80.878 E.00948
G1 X152.114 Y80.88 E1.41245
G1 X152.448 Y80.966 E.00899
G1 X152.675 Y81.194 E.00838
G1 X152.759 Y81.505 E.00839
G1 X152.659 Y81.855 E.00948
G1 X125.564 Y128.772 E1.41167
G1 X125.311 Y129.034 E.00949
G1 X125 Y129.117 E.00839
G1 X124.689 Y129.034 E.00839
G1 X124.436 Y128.772 E.00949
G1 X97.341 Y81.855 E1.41167
G1 X97.241 Y81.505 E.00948
G1 X97.325 Y81.194 E.00839
G1 X97.396 Y81.123 E.00262
M204 S1000
G1 X97.123 Y80.771 F10800
M204 S800
;TYPE:External perimeter
G1 F1500
G1 X97.467 Y80.549 E.01067
G1 X97.878 Y80.46 E.01096
G1 X152.052 Y80.462 E1.41154
G1 X152.407 Y80.497 E.00929
G1 X152.767 Y80.684 E.01057
G1 X153.04 Y80.983 E.01055
G1 X153.162 Y81.37 E.01057
G1 X153.162 Y81.64 E.00704
G1 X153.035 Y82.04 E.01093
G1 X125.948 Y128.943 E1.41125
G1 X125.82 Y129.125 E.0058
G1 X125.521 Y129.399 E.01057
G1 X125.135 Y129.521 E.01055
G1 X124.73 Y129.503 E.01056
G1 X124.371 Y129.316 E.01055
G1 X124.088 Y129.005 E.01096
G1 X97.001 Y82.102 E1.41125
G1 X96.908 Y81.901 E.00577
G1 X96.82 Y81.505 E.01057
G1 X96.908 Y81.109 E.01057
G1 X97.091 Y80.822 E.00887
M204 S1000
G1 X97.508 Y80.879 F10800
;WIPE_START
G1 F8640
G1 X97.467 Y80.549 E-.10729
G1 X97.878 Y80.46 E-.0971
G1 X100.457 Y80.46 E-.59561
;WIPE_END
G1 Z.75 F720
G1 X101.609 Y81.254 F10800
G1 Z.35 F720
G1 E.8 F2100
;TYPE:Solid infill
G1 F4800
G1 X97.97 Y81.254 E.09482
G1 X97.741 Y81.303 E.0061
G1 X97.643 Y81.444 E.00447
G1 X97.685 Y81.698 E.00671
G1 X98.959 Y83.904 E.06638
G1 X101.462 Y81.401 E.09223
G1 X102.2 Y81.254 E.01961
G1 X99.175 Y84.279 E.11147
G1 X99.391 Y84.653 E.01125
G1 X102.791 Y81.254 E.12527
G1 X103.382 Y81.254 E.0154
G1 X99.608 Y85.028 E.13907
G1 X99.824 Y85.403 E.01128
G1 X103.973 Y81.254 E.15288
G1 X104.564 Y81.254 E.0154
G1 X100.04 Y85.777 E.16668
G1 X100.257 Y86.152 E.01129
G1 X105.154 Y81.254 E.18046
G1 X105.745 Y81.254 E.0154
G1 X100.473 Y86.526 E.19426
G1 X100.689 Y86.901 E.01128
G1 X106.336 Y81.254 E.20808
G1 X106.927 Y81.254 E.0154
G1 X100.906 Y87.275 E.22186
G1 X101.122 Y87.65 E.01128
G1 X107.518 Y81.254 E.23568
G1 X108.109 Y81.254 E.0154
G1 X101.338 Y88.025 E.2495
G1 X101.554 Y88.399 E.01125
G1 X108.699 Y81.254 E.26328
G1 X109.29 Y81.254 E.0154
G1 X101.771 Y88.774 E.27708
G1 X101.987 Y89.148 E.01125
G1 X109.881 Y81.254 E.29088
G1 X110.472 Y81.254 E.0154
G1 X102.203 Y89.523 E.3047
