; generated by PrusaSlicer 2.6.0+MacOS-x64 on 2023-12-16 at 11:00:09 UTC


;
;
; 

; external perimeters extrusion width = 0.45mm
; perimeters extrusion width = 0.45mm
; infill extrusion width = 0.45mm
; solid infill extrusion width = 0.45mm
; top infill extrusion width = 0.40mm
; first layer extrusion width = 0.42mm

M73 P0 R92
M73 Q0 S95
M201 X1000 Y1000 Z200 E5000 ; sets maximum accelerations, mm/sec^2
M203 X200 Y200 Z12 E120 ; sets maximum feedrates, mm / sec
M204 S1250 T1250 ; sets acceleration (S) and retract acceleration (R), mm/sec^2
M205 X8.00 Y8.00 Z0.40 E4.50 ; sets the jerk limits, mm/sec
M205 S0 T0 ; sets the minimum extruding and travel feed rate, mm/sec
;TYPE:Custom
M862.3 P "MK3S" ; printer model check
M862.1 P0.4 ; nozzle diameter check
M115 U3.13.0 ; tell printer latest fw version
G90 ; use absolute coordinates
M83 ; extruder relative mode
M104 S215 ; set extruder temp
M140 S60 ; set bed temp
M190 S60 ; wait for bed temp
M109 S215 ; wait for extruder temp
G28 W ; home all without mesh bed level
G80 ; mesh bed leveling

G1 Z0.2 F720
G1 Y-3 F1000 ; go outside print area
G92 E0
G1 X60 E9 F1000 ; intro line
G1 X100 E12.5 F1000 ; intro line

G92 E0
M221 S95

; Don't change E values below. Excessive value can damage the printer.

M907 E538 ; set extruder motor current
G21 ; set units to millimeters
G90 ; use absolute coordinates
M83 ; use relative distances for extrusion
M900 K0.05 ; Filament gcode LA 1.5
M900 K30 ; Filament gcode LA 1.0
M107
;LAYER_CHANGE
;Z:0.2
;HEIGHT:0.2
;BEFORE_LAYER_CHANGE
G92 E0.0
;0.2


G1 E-.8 F2100
G1 Z.4 F720
;AFTER_LAYER_CHANGE
;0.2
G1 X104.635 Y87.058 F10800
G1 Z.2 F720
G1 E.8 F2100
M204 S800
;TYPE:Skirt/Brim
;WIDTH:0.42
G1 F1200
G1 X105.857 Y85.76 E.0559
G1 X108.203 Y83.681 E.09828
G1 X110.88 Y81.822 E.10219
G1 X112.448 Y80.936 E.05647
G1 X115.306 Y79.649 E.09828
G1 X116.991 Y79.067 E.05589
G1 X120.035 Y78.317 E.0983
G1 X123.289 Y77.913 E.10281
G1 X125.072 Y77.859 E.05593
G1 X128.2 Y78.048 E.09826
G1 X131.405 Y78.626 E.10211
G1 X133.143 Y79.109 E.05656
G1 X136.074 Y80.221 E.09829
G1 X137.674 Y81 E.0558
G1 X140.359 Y82.623 E.09837
G1 X141.795 Y83.679 E.05589
G1 X144.24 Y85.857 E.10267
G1 X146.321 Y88.205 E.09837
G1 X148.188 Y90.895 E.10267
G1 X149.064 Y92.448 E.05591
G1 X150.352 Y95.308 E.09835
G1 X150.933 Y96.994 E.05591
G1 X151.709 Y100.176 E.10269
G1 X152.087 Y103.289 E.09832
G1 X152.141 Y105.072 E.05593
G1 X151.952 Y108.2 E.09826
G1 X151.37 Y111.426 E.10278
G1 X150.891 Y113.143 E.05589
G1 X149.779 Y116.074 E.09829
G1 X148.999 Y117.677 E.0559
G1 X147.377 Y120.359 E.09827
G1 X145.363 Y122.944 E.10275
G1 X144.141 Y124.242 E.0559
G1 X141.684 Y126.407 E.10268
G1 X139.103 Y128.189 E.09834
G1 X137.549 Y129.066 E.05595
G1 X134.694 Y130.351 E.09817
G1 X133.006 Y130.933 E.05598
G1 X129.963 Y131.683 E.09827
G1 X126.71 Y132.087 E.10278
G1 X124.928 Y132.141 E.0559
G1 X121.8 Y131.952 E.09826
G1 X118.574 Y131.37 E.10278
G1 X116.857 Y130.891 E.05589
G1 X113.926 Y129.779 E.09829
G1 X112.323 Y128.999 E.0559
G1 X109.641 Y127.377 E.09827
G1 X108.205 Y126.321 E.05589
G1 X105.76 Y124.143 E.10267
G1 X103.679 Y121.795 E.09837
G1 X102.623 Y120.359 E.05589
G1 X100.936 Y117.552 E.10268
G1 X99.648 Y114.692 E.09835
G1 X98.666 Y111.568 E.10268
G1 X98.291 Y109.824 E.05593
G1 X97.913 Y106.71 E.09835
G1 X97.859 Y104.928 E.0559
G1 X98.048 Y101.8 E.09826
G1 X98.626 Y98.595 E.10211
G1 X99.109 Y96.857 E.05656
G1 X100.22 Y93.929 E.09819
G1 X101.001 Y92.323 E.05599
G1 X102.621 Y89.643 E.09819
G1 X104.598 Y87.105 E.10087
M204 S1000
; printing object Body1.stl id:0 copy 0
;WIPE_START
G1 F8640
G1 X105.857 Y85.76 E-.42539
G1 X107.071 Y84.684 E-.37461
;WIPE_END
G1 Z.6 F720
G1 X101.22 Y106.447 F10800
G1 Z.2 F720
G1 E.8 F2100
M204 S800
;TYPE:Perimeter
;WIDTH:0.419999
G1 F1200
G1 X101.176 Y105 E.04539
G1 X101.22 Y103.553 E.04539
G1 X101.352 Y102.112 E.04537
G1 X101.571 Y100.681 E.04539
G1 X101.877 Y99.266 E.04539
G1 X102.268 Y97.872 E.04539
G1 X102.743 Y96.505 E.04538
G1 X103.3 Y95.169 E.04538
G1 X103.937 Y93.869 E.04539
G1 X104.652 Y92.61 E.0454
G1 X105.442 Y91.397 E.04539
G1 X106.304 Y90.235 E.04536
G1 X107.235 Y89.126 E.0454
G1 X108.232 Y88.077 E.04538
G1 X109.291 Y87.09 E.04539
G1 X110.408 Y86.169 E.04539
G1 X111.578 Y85.317 E.04538
G1 X112.798 Y84.539 E.04537
G1 X114.064 Y83.835 E.04542
G1 X115.369 Y83.21 E.04537
G1 X116.71 Y82.666 E.04537
G1 X118.082 Y82.203 E.0454
G1 X119.479 Y81.825 E.04538
G1 X120.897 Y81.533 E.04539
G1 X122.33 Y81.327 E.04539
G1 X123.773 Y81.209 E.0454
G1 X125.222 Y81.178 E.04544
G1 X125.785 Y81.195 E.01766
G1 X126.664 Y81.235 E.02759
G1 X128.106 Y81.381 E.04544
G1 X129.535 Y81.613 E.04539
G1 X130.947 Y81.932 E.04539
G1 X132.34 Y82.336 E.04548
G1 X132.872 Y82.52 E.01765
G1 X133.698 Y82.822 E.02758
G1 X135.031 Y83.392 E.04546
G1 X136.328 Y84.043 E.0455
G1 X137.574 Y84.767 E.04518
G1 X138.782 Y85.569 E.04546
G1 X139.936 Y86.442 E.04537
G1 X141.036 Y87.383 E.04539
G1 X142.079 Y88.393 E.04552
G1 X142.465 Y88.802 E.01763
G1 X143.052 Y89.456 E.02755
G1 X143.964 Y90.583 E.04546
G1 X144.804 Y91.761 E.04536
G1 X145.572 Y92.988 E.04539
G1 X146.265 Y94.264 E.04553
G1 X146.511 Y94.769 E.01761
G1 X146.875 Y95.568 E.02753
G1 X147.408 Y96.917 E.04548
G1 X147.859 Y98.298 E.04555
G1 X148.222 Y99.691 E.04514
G1 X148.502 Y101.114 E.04547
G1 X148.695 Y102.548 E.04537
G1 X148.805 Y104.161 E.05069
G1 X148.817 Y104.555 E.01236
G1 X148.8 Y106.008 E.04556
G1 X148.694 Y107.455 E.04549
G1 X148.503 Y108.881 E.04511
G1 X148.223 Y110.306 E.04553
G1 X147.858 Y111.707 E.04539
G1 X147.408 Y113.083 E.04539
G1 X146.875 Y114.432 E.04548
G1 X146.511 Y115.231 E.02753
G1 X146.265 Y115.736 E.01761
G1 X145.572 Y117.012 E.04553
G1 X144.804 Y118.239 E.04539
G1 X143.964 Y119.417 E.04536
G1 X143.052 Y120.544 E.04546
G1 X142.465 Y121.198 E.02755
G1 X142.079 Y121.607 E.01763
G1 X141.036 Y122.617 E.04552
G1 X139.935 Y123.56 E.04545
G1 X138.785 Y124.429 E.04519
G1 X137.576 Y125.232 E.04551
G1 X136.324 Y125.959 E.04539
G1 X135.031 Y126.608 E.04536
G1 X133.698 Y127.178 E.04546
G1 X132.872 Y127.48 E.02758
G1 X132.34 Y127.664 E.01765
G1 X130.947 Y128.068 E.04548
G1 X129.535 Y128.387 E.04539
G1 X128.106 Y128.619 E.04539
G1 X126.664 Y128.765 E.04544
G1 X125.222 Y128.822 E.04525
G1 X123.773 Y128.791 E.04544
G1 X122.33 Y128.673 E.0454
G1 X120.897 Y128.467 E.04539
G1 X119.479 Y128.175 E.04539
G1 X118.082 Y127.797 E.04538
G1 X116.71 Y127.334 E.0454
G1 X115.369 Y126.79 E.04537
G1 X114.064 Y126.165 E.04537
G1 X112.798 Y125.461 E.04542
G1 X111.578 Y124.683 E.04537
G1 X110.408 Y123.831 E.04538
G1 X109.291 Y122.91 E.04539
G1 X108.232 Y121.923 E.04539
G1 X107.235 Y120.874 E.04538
G1 X106.304 Y119.765 E.0454
G1 X105.442 Y118.603 E.04536
G1 X104.652 Y117.39 E.04539
G1 X103.937 Y116.131 E.0454
G1 X103.3 Y114.831 E.04539
G1 X102.743 Y113.495 E.04538
G1 X102.268 Y112.128 E.04538
M73 Q0 S94
G1 X101.877 Y110.734 E.04539
G1 X101.571 Y109.319 E.04539
G1 X101.352 Y107.888 E.04539
G1 X101.226 Y106.507 E.04348
M204 S1000
G1 X100.844 Y106.47 F10800
M204 S800
;TYPE:External perimeter
G1 F1200
G1 X100.799 Y105 E.04611
G1 X100.844 Y103.53 E.04611
G1 X100.978 Y102.066 E.04609
G1 X101.2 Y100.612 E.04612
G1 X101.511 Y99.175 E.0461
G1 X101.908 Y97.759 E.04611
G1 X102.39 Y96.37 E.0461
G1 X102.956 Y95.013 E.0461
G1 X103.603 Y93.693 E.04609
G1 X104.33 Y92.414 E.04613
G1 X105.132 Y91.182 E.04609
G1 X106.008 Y90.001 E.0461
G1 X106.954 Y88.875 E.04611
G1 X107.967 Y87.809 E.04611
G1 X109.042 Y86.806 E.0461
G1 X110.177 Y85.87 E.04613
G1 X111.366 Y85.006 E.04608
G1 X112.605 Y84.214 E.04611
G1 X113.891 Y83.5 E.04612
G1 X115.217 Y82.865 E.0461
G1 X116.579 Y82.312 E.04609
G1 X117.973 Y81.842 E.04613
G1 X119.392 Y81.458 E.04609
G1 X120.832 Y81.161 E.0461
G1 X122.288 Y80.952 E.04612
G1 X123.753 Y80.832 E.04609
G1 X125.224 Y80.801 E.04613
G1 X125.8 Y80.818 E.01807
G1 X126.692 Y80.859 E.028
G1 X128.155 Y81.007 E.04611
G1 X129.607 Y81.243 E.04612
G1 X131.041 Y81.566 E.04609
G1 X132.454 Y81.977 E.04614
G1 X132.999 Y82.165 E.01808
G1 X133.837 Y82.471 E.02797
G1 X135.189 Y83.05 E.04611
G1 X136.505 Y83.71 E.04616
G1 X137.775 Y84.447 E.04604
G1 X139 Y85.261 E.04612
G1 X140.173 Y86.148 E.04611
G1 X141.29 Y87.104 E.0461
G1 X142.348 Y88.128 E.04617
G1 X142.742 Y88.547 E.01803
G1 X143.339 Y89.211 E.028
G1 X144.264 Y90.355 E.04613
G1 X145.118 Y91.552 E.0461
G1 X145.898 Y92.798 E.04609
G1 X146.601 Y94.091 E.04615
G1 X146.853 Y94.609 E.01806
G1 X147.222 Y95.421 E.02797
G1 X147.763 Y96.789 E.04612
G1 X148.22 Y98.189 E.04618
G1 X148.59 Y99.609 E.04601
G1 X148.874 Y101.052 E.04611
G1 X149.07 Y102.51 E.04613
G1 X149.182 Y104.15 E.05154
G1 X149.194 Y104.552 E.01261
G1 X149.177 Y106.024 E.04616
G1 X149.07 Y107.492 E.04615
G1 X148.875 Y108.946 E.046
G1 X148.591 Y110.39 E.04614
G1 X148.22 Y111.813 E.04611
G1 X147.763 Y113.211 E.04612
M73 P0 R91
G1 X147.222 Y114.579 E.04612
G1 X146.853 Y115.391 E.02797
G1 X146.601 Y115.909 E.01806
G1 X145.898 Y117.202 E.04615
G1 X145.118 Y118.448 E.04609
G1 X144.264 Y119.645 E.0461
G1 X143.339 Y120.789 E.04613
G1 X142.742 Y121.453 E.028
G1 X142.348 Y121.872 E.01803
G1 X141.29 Y122.896 E.04617
G1 X140.172 Y123.853 E.04614
G1 X139.001 Y124.738 E.04602
G1 X137.776 Y125.553 E.04613
G1 X136.504 Y126.291 E.04611
G1 X135.189 Y126.95 E.04612
G1 X133.837 Y127.529 E.04611
G1 X132.999 Y127.835 E.02797
G1 X132.454 Y128.023 E.01808
G1 X131.041 Y128.434 E.04614
G1 X129.607 Y128.757 E.04609
G1 X128.155 Y128.993 E.04612
G1 X126.692 Y129.141 E.04611
G1 X125.224 Y129.199 E.04606
G1 X123.753 Y129.168 E.04613
G1 X122.288 Y129.048 E.04609
G1 X120.832 Y128.839 E.04612
G1 X119.392 Y128.542 E.0461
G1 X117.973 Y128.158 E.04609
G1 X116.579 Y127.688 E.04613
G1 X115.217 Y127.135 E.04609
G1 X113.891 Y126.5 E.0461
G1 X112.605 Y125.786 E.04612
G1 X111.366 Y124.994 E.04611
G1 X110.177 Y124.129 E.0461
G1 X109.042 Y123.194 E.04611
G1 X107.967 Y122.191 E.0461
G1 X106.954 Y121.125 E.04611
G1 X106.008 Y119.999 E.04611
G1 X105.132 Y118.818 E.0461
G1 X104.33 Y117.586 E.04609
G1 X103.603 Y116.307 E.04613
G1 X102.956 Y114.987 E.04609
G1 X102.39 Y113.63 E.0461
G1 X101.908 Y112.241 E.0461
G1 X101.511 Y110.825 E.04611
G1 X101.2 Y109.388 E.0461
G1 X100.978 Y107.934 E.04612
G1 X100.849 Y106.53 E.04421
M204 S1000
G1 X101.177 Y106.249 F10800
;WIPE_START
G1 F8640
G1 X100.799 Y105 E-.35347
G1 X100.844 Y103.53 E-.33959
G1 X100.886 Y103.069 E-.10694
;WIPE_END
G1 Z.6 F720
G1 X133.868 Y119.403 F10800
G1 Z.2 F720
G1 E.8 F2100
M204 S800
;TYPE:Perimeter
G1 F1200
G1 X133.399 Y119.001 E.01937
G1 X132.971 Y118.483 E.02107
G1 X132.636 Y117.901 E.02106
G1 X132.404 Y117.27 E.02108
G1 X132.283 Y116.609 E.02107
G1 X132.275 Y115.937 E.02107
G1 X132.38 Y115.274 E.02105
G1 X132.596 Y114.638 E.02106
G1 X132.925 Y114.033 E.02159
G1 X133.333 Y113.519 E.02058
G1 X133.831 Y113.069 E.02104
G1 X134.399 Y112.71 E.02107
G1 X135.02 Y112.452 E.02108
G1 X135.675 Y112.303 E.02106
G1 X136.345 Y112.266 E.02104
G1 X137.013 Y112.343 E.02108
G1 X137.658 Y112.532 E.02107
G1 X138.261 Y112.827 E.02105
G1 X138.806 Y113.22 E.02107
G1 X139.277 Y113.7 E.02109
G1 X139.66 Y114.252 E.02107
G1 X139.944 Y114.861 E.02107
G1 X140.121 Y115.509 E.02106
G1 X140.186 Y116.177 E.02104
G1 X140.137 Y116.847 E.02106
G1 X139.981 Y117.481 E.02047
G1 X139.707 Y118.115 E.02166
G1 X139.337 Y118.676 E.02107
G1 X138.878 Y119.167 E.02107
G1 X138.261 Y119.623 E.02406
G1 X137.747 Y119.883 E.01806
G1 X137.184 Y120.063 E.01853
G1 X136.441 Y120.181 E.02359
G1 X135.77 Y120.16 E.02105
G1 X135.111 Y120.027 E.02108
G1 X134.485 Y119.784 E.02105
G1 X133.914 Y119.441 E.02089
M204 S1000
G1 X134.119 Y119.125 F10800
M204 S800
;TYPE:External perimeter
G1 F1200
G1 X133.648 Y118.718 E.01952
G1 X133.264 Y118.246 E.01908
G1 X132.965 Y117.717 E.01905
G1 X132.76 Y117.144 E.01908
G1 X132.654 Y116.545 E.01907
G1 X132.652 Y115.937 E.01906
G1 X132.752 Y115.337 E.01907
G1 X132.952 Y114.763 E.01906
G1 X133.249 Y114.226 E.01924
G1 X133.626 Y113.756 E.01889
G1 X134.081 Y113.352 E.01908
G1 X134.597 Y113.031 E.01905
G1 X135.16 Y112.802 E.01906
G1 X135.754 Y112.671 E.01907
G1 X136.361 Y112.643 E.01905
G1 X136.965 Y112.717 E.01908
G1 X137.547 Y112.893 E.01906
G1 X138.091 Y113.164 E.01906
G1 X138.582 Y113.524 E.01909
G1 X139.005 Y113.961 E.01907
G1 X139.347 Y114.463 E.01905
G1 X139.6 Y115.016 E.01907
G1 X139.756 Y115.604 E.01907
G1 X139.81 Y116.209 E.01904
G1 X139.762 Y116.815 E.01906
G1 X139.616 Y117.386 E.01848
G1 X139.363 Y117.96 E.01967
G1 X139.025 Y118.465 E.01905
G1 X138.606 Y118.906 E.01907
G1 X138.119 Y119.27 E.01906
G1 X137.577 Y119.546 E.01907
G1 X137.074 Y119.703 E.01652
G1 X136.393 Y119.807 E.0216
G1 X135.786 Y119.783 E.01905
G1 X135.191 Y119.658 E.01906
G1 X134.626 Y119.434 E.01906
G1 X134.17 Y119.156 E.01675
M204 S1000
G1 X133.753 Y119.287 F10800
;WIPE_START
G1 F8640
G1 X133.648 Y118.718 E-.15734
G1 X133.264 Y118.246 E-.1405
G1 X132.965 Y117.717 E-.14031
G1 X132.76 Y117.144 E-.14052
G1 X132.654 Y116.545 E-.14046
G1 X132.653 Y116.195 E-.08087
;WIPE_END
G1 Z.6 F720
G1 X133.877 Y90.59 F10800
G1 Z.2 F720
G1 E.8 F2100
M204 S800
;TYPE:Perimeter
G1 F1200
G1 X134.35 Y90.29 E.01756
G1 X135.111 Y89.973 E.02585
G1 X135.675 Y89.852 E.01809
G1 X136.236 Y89.82 E.01762
G1 X137.013 Y89.893 E.02447
G1 X137.658 Y90.082 E.02107
G1 X138.261 Y90.377 E.02105
G1 X138.806 Y90.77 E.02107
G1 X139.212 Y91.181 E.01811
G1 X139.66 Y91.801 E.02398
G1 X139.944 Y92.41 E.02107
G1 X140.121 Y93.058 E.02106
G1 X140.186 Y93.727 E.02107
G1 X140.137 Y94.397 E.02106
G1 X139.999 Y94.959 E.01814
G1 X139.786 Y95.488 E.01788
G1 X139.533 Y95.936 E.01613
G1 X139.277 Y96.3 E.01395
G1 X138.878 Y96.716 E.01807
G1 X138.452 Y97.042 E.01682
G1 X137.747 Y97.432 E.02526
G1 X137.107 Y97.637 E.02107
G1 X136.441 Y97.73 E.02108
G1 X135.77 Y97.71 E.02105
G1 X135.111 Y97.576 E.02109
G1 X134.485 Y97.333 E.02105
G1 X133.909 Y96.988 E.02105
G1 X133.399 Y96.55 E.02108
G1 X132.971 Y96.032 E.02107
G1 X132.636 Y95.45 E.02106
G1 X132.404 Y94.819 E.02108
G1 X132.283 Y94.158 E.02107
G1 X132.275 Y93.487 E.02104
G1 X132.38 Y92.823 E.02108
G1 X132.596 Y92.187 E.02106
G1 X132.917 Y91.596 E.02109
G1 X133.093 Y91.365 E.00911
G1 X133.399 Y90.999 E.01496
G1 X133.827 Y90.623 E.01786
M204 S1000
G1 X134.068 Y90.913 F10800
M204 S800
;TYPE:External perimeter
G1 F1200
G1 X134.548 Y90.611 E.01778
G1 X135.16 Y90.351 E.02085
G1 X135.754 Y90.221 E.01907
G1 X136.361 Y90.192 E.01905
G1 X136.965 Y90.267 E.01908
G1 X137.547 Y90.442 E.01906
G1 X138.091 Y90.713 E.01906
G1 X138.582 Y91.073 E.01909
G1 X138.939 Y91.442 E.0161
G1 X139.347 Y92.012 E.02198
G1 X139.6 Y92.565 E.01907
G1 X139.756 Y93.153 E.01907
G1 X139.81 Y93.759 E.01908
G1 X139.762 Y94.365 E.01906
G1 X139.634 Y94.864 E.01615
G1 X139.443 Y95.333 E.01588
G1 X139.221 Y95.725 E.01413
G1 X139.005 Y96.039 E.01195
G1 X138.606 Y96.455 E.01807
G1 X138.119 Y96.819 E.01906
G1 X137.577 Y97.095 E.01907
G1 X136.996 Y97.276 E.01908
G1 X136.393 Y97.356 E.01907
G1 X135.786 Y97.333 E.01905
G1 X135.191 Y97.207 E.01907
G1 X134.626 Y96.983 E.01906
G1 X134.106 Y96.667 E.01908
G1 X133.648 Y96.267 E.01907
G1 X133.264 Y95.796 E.01905
G1 X132.965 Y95.266 E.01908
G1 X132.76 Y94.694 E.01905
G1 X132.654 Y94.095 E.01907
G1 X132.652 Y93.487 E.01906
G1 X132.752 Y92.887 E.01907
G1 X132.952 Y92.313 E.01906
G1 X133.246 Y91.78 E.01909
G1 X133.648 Y91.282 E.02007
G1 X134.023 Y90.952 E.01566
M204 S1000
G1 X134.02 Y90.516 F10800
;WIPE_START
G1 F8640
G1 X134.548 Y90.611 E-.14455
G1 X135.16 Y90.351 E-.15354
G1 X135.754 Y90.221 E-.1404
G1 X136.361 Y90.192 E-.14032
G1 X136.965 Y90.267 E-.14054
G1 X137.299 Y90.368 E-.08065
;WIPE_END
G1 Z.6 F720
G1 X111.427 Y90.59 F10800
G1 Z.2 F720
G1 E.8 F2100
M204 S800
;TYPE:Perimeter
G1 F1200
G1 X111.949 Y90.26 E.01936
G1 X112.569 Y90.002 E.02106
G1 X113.224 Y89.852 E.02107
G1 X113.895 Y89.815 E.02107
G1 X114.562 Y89.893 E.02106
G1 X115.207 Y90.082 E.02107
G1 X115.811 Y90.377 E.02108
G1 X116.356 Y90.77 E.02107
G1 X116.734 Y91.153 E.01687
G1 X117.209 Y91.801 E.02519
G1 X117.493 Y92.41 E.02107
G1 X117.67 Y93.058 E.02106
G1 X117.736 Y93.727 E.02108
G1 X117.687 Y94.397 E.02106
G1 X117.525 Y95.049 E.02106
G1 X117.256 Y95.664 E.02105
G1 X116.886 Y96.226 E.0211
G1 X116.428 Y96.716 E.02103
G1 X115.892 Y97.122 E.02108
